X: 35060
T: Rolling In The Barrel
R: reel
M: 4/4
K: Aminor
|:GA A2 eA A2|e2 dB GABG|GA A2 eA A2|e2 dg eAAG|
GA A2 eA A2|e2 dB GA (2BAG|GA A2 eA A2|e2 dg eA A2:|
|:A2 (3cBA eAcA|G^FGB d2 BG|A2 (3cBA eAcA|gedf eAAG|
A2 (3cBA eAcA|G^FGB d2 Bc|dBcA BGA^F|GEDB eAAG:|

